polaris-icons/icons/newicons/SecureMajor.svg

<svg width="20" height="20" viewBox="0 0 20 20" fill="none" xmlns="http://www.w3.org/2000/svg">
<path d="M8.28032 9.43207C7.98743 9.13918 7.51255 9.13918 7.21966 9.43207C6.92677 9.72497 6.92677 10.1998 7.21966 10.4927L8.76776 12.0408C9.06065 12.3337 9.53553 12.3337 9.82842 12.0408L12.7907 9.07852C13.0836 8.78563 13.0836 8.31075 12.7907 8.01786C12.4978 7.72497 12.023 7.72497 11.7301 8.01786L9.29809 10.4498L8.28032 9.43207Z" fill="black"/>
<path fill-rule="evenodd" clip-rule="evenodd" d="M11.1332 2.99272C10.4837 2.42691 9.51632 2.42691 8.86679 2.99272C7.58299 4.11105 6.11647 5.00034 4.53131 5.62172L4.11131 5.78636C3.44938 6.04584 2.97911 6.69857 3.01871 7.45474C3.34574 13.6984 7.83519 16.67 9.23843 17.4508C9.71422 17.7155 10.2858 17.7155 10.7616 17.4508C12.1648 16.67 16.6542 13.6984 16.9813 7.45474C17.0209 6.69857 16.5506 6.04584 15.8887 5.78636L15.4687 5.62172C13.8835 5.00034 12.417 4.11105 11.1332 2.99272ZM5.07875 7.01826C6.82399 6.33413 8.4386 5.35503 9.85206 4.12376C9.93685 4.04989 10.0631 4.04989 10.1479 4.12376C11.5614 5.35503 13.176 6.33413 14.9212 7.01826L15.3412 7.1829C15.4454 7.22373 15.4868 7.31072 15.4833 7.37628C15.1972 12.8395 11.2788 15.4465 10.0323 16.14C10.0189 16.1474 10.0081 16.1493 9.99999 16.1493C9.99187 16.1493 9.98112 16.1474 9.96771 16.14C8.72123 15.4465 4.80281 12.8395 4.51666 7.37628C4.51323 7.31071 4.55458 7.22373 4.65875 7.1829L5.07875 7.01826Z" fill="black"/>
</svg>

<svg viewBox="0 0 20 20" fill="none" xmlns="http://www.w3.org/2000/svg"><path d="M8.28 9.432a.75.75 0 0 0-1.06 1.06l1.548 1.549a.75.75 0 0 0 1.06 0l2.963-2.962a.75.75 0 0 0-1.06-1.061l-2.433 2.432-1.018-1.018Z" fill="#000"/><path fill-rule="evenodd" clip-rule="evenodd" d="M11.133 2.993a1.725 1.725 0 0 0-2.266 0 14.854 14.854 0 0 1-4.336 2.629l-.42.164a1.704 1.704 0 0 0-1.092 1.669c.327 6.243 4.816 9.215 6.22 9.996a1.56 1.56 0 0 0 1.523 0c1.403-.781 5.892-3.753 6.22-9.996a1.704 1.704 0 0 0-1.093-1.669l-.42-.164a14.853 14.853 0 0 1-4.336-2.63Zm-6.054 4.025a16.354 16.354 0 0 0 4.773-2.894.225.225 0 0 1 .296 0 16.355 16.355 0 0 0 4.773 2.894l.42.165c.104.04.146.128.142.193-.286 5.463-4.204 8.07-5.45 8.764a.066.066 0 0 1-.033.01.066.066 0 0 1-.032-.01c-1.247-.694-5.165-3.3-5.451-8.764-.004-.065.038-.152.142-.193l.42-.165Z" fill="#000"/></svg>
